assets/images/simple-illustrations/simple-illustration__palmtree.svg

<svg xmlns="http://www.w3.org/2000/svg" width="48" height="48" fill="none" viewBox="0 0 48 48"><path fill="#D18000" d="M22.4677 17.4711C22.4677 17.4711 23.564 27.2501 22.1922 30.451C20.8204 33.6492 18.7186 40.5055 18.8095 41.2355C18.8095 41.2355 19.6332 44.0701 24.2031 43.6128C28.7731 43.1555 28.7731 41.6928 28.7731 41.6928C28.7731 41.6928 29.7786 22.9556 28.134 17.2893C28.134 17.2893 26.0322 16.5593 24.9358 16.7411C23.8395 16.9229 22.4677 17.4711 22.4677 17.4711Z"/><path fill="#03D47C" d="M23.7487 6.22644C23.7487 6.22644 20.7324 4.21554 16.2533 5.49645C11.7743 6.77737 8.11881 13.9973 7.75244 15.2755C7.75244 15.2755 15.2479 13.7219 17.4406 13.9037C17.4406 13.9037 12.8706 19.0218 13.237 24.4154C13.237 24.4154 19.5424 16.8291 25.4842 16.5564C31.426 16.2809 37.8223 24.9664 37.8223 24.9664C37.8223 24.9664 37.4559 17.2891 33.8914 13.9973L40.3814 15.6419C40.3814 15.6419 37.1832 6.3201 28.7732 5.13009C28.7732 5.13009 26.3051 4.76372 23.746 6.22644H23.7487Z"/><path stroke="#002140" stroke-linecap="round" stroke-linejoin="round" stroke-width="1" d="M22.2774 17.5978C23.8007 35.2083 19.2913 35.3295 18.8037 40.9958"/><path stroke="#002140" stroke-linecap="round" stroke-linejoin="round" stroke-width="1" d="M22.0958 10.6504C22.0958 10.6504 13.1377 14.124 13.1377 25.2749C13.1377 25.2749 17.5259 17.2313 25.5667 16.6831"/><path stroke="#002140" stroke-linecap="round" stroke-linejoin="round" stroke-width="1" d="M29.0426 10.6504C29.0426 10.6504 38.0008 14.124 38.0008 25.2749C38.0008 25.2749 33.6126 17.2313 25.5718 16.6831"/><path stroke="#002140" stroke-linecap="round" stroke-linejoin="round" stroke-width="1" d="M18.8071 40.9958C18.8071 40.9958 18.9283 43.6154 23.4377 43.6154C27.9471 43.6154 28.6771 41.9103 28.6771 41.9103C30.3216 32.5885 28.3107 17.4159 28.3107 17.4159"/><path stroke="#002140" stroke-linecap="round" stroke-linejoin="round" stroke-width="1" d="M23.9249 6.20167C19.4155 3.39743 11.7383 4.73895 7.47412 15.708C7.47412 15.708 12.8374 13.6365 17.5892 13.7577"/><path stroke="#002140" stroke-linecap="round" stroke-linejoin="round" stroke-width="1" d="M24.0464 6.20173C30.1397 2.36174 37.7315 8.59002 40.4972 15.708C40.4972 15.708 37.4809 14.5428 33.9687 14.0112"/><path stroke="#002140" stroke-linecap="round" stroke-linejoin="round" stroke-width="1" d="M24.2773 9.51001C25.3269 10.375 26.01 11.6724 26.1285 13.0277"/><path stroke="#002140" stroke-linecap="round" stroke-linejoin="round" stroke-width="1" d="M20.085 37.5221C20.085 37.5221 23.2528 39.8994 29.1037 37.5221"/><path stroke="#002140" stroke-linecap="round" stroke-linejoin="round" stroke-width="1" d="M21.793 32.7069C21.793 32.7069 25.082 34.1696 29.2278 32.7069"/><path stroke="#002140" stroke-linecap="round" stroke-linejoin="round" stroke-width="1" d="M22.6689 27.0571C23.9939 27.3601 26.2583 27.5942 28.8587 26.6742"/><path stroke="#002140" stroke-linecap="round" stroke-linejoin="round" stroke-width="1" d="M22.6328 20.581C23.9909 20.8179 26.021 20.9033 28.3102 20.0962"/></svg>

<svg xmlns="http://www.w3.org/2000/svg" width="48" height="48" fill="none" viewBox="0 0 48 48"><path fill="#d18000" d="M22.468 17.471s1.096 9.78-.276 12.98c-1.372 3.198-3.473 10.054-3.383 10.785 0 0 .824 2.834 5.394 2.377s4.57-1.92 4.57-1.92 1.006-18.737-.639-24.404c0 0-2.102-.73-3.198-.548s-2.468.73-2.468.73"/><path fill="#03d47c" d="M23.749 6.226s-3.017-2.01-7.496-.73c-4.479 1.281-8.134 8.501-8.5 9.78 0 0 7.495-1.554 9.688-1.372 0 0-4.57 5.118-4.204 10.511 0 0 6.305-7.586 12.247-7.859 5.942-.275 12.338 8.41 12.338 8.41s-.366-7.677-3.93-10.969l6.49 1.645s-3.2-9.322-11.61-10.512c0 0-2.468-.366-5.027 1.096z"/><path stroke="#002140" stroke-linecap="round" stroke-linejoin="round" d="M22.277 17.598c1.524 17.61-2.986 17.732-3.473 23.398"/><path stroke="#002140" stroke-linecap="round" stroke-linejoin="round" d="M22.096 10.65s-8.958 3.474-8.958 14.625c0 0 4.388-8.044 12.429-8.592m3.476-6.033S38 14.124 38 25.275c0 0-4.388-8.044-12.43-8.592"/><path stroke="#002140" stroke-linecap="round" stroke-linejoin="round" d="M18.807 40.996s.121 2.62 4.63 2.62 5.24-1.706 5.24-1.706c1.645-9.321-.366-24.494-.366-24.494M23.925 6.202c-4.51-2.805-12.187-1.463-16.45 9.506 0 0 5.362-2.072 10.114-1.95m6.457-7.556c6.094-3.84 13.685 2.388 16.451 9.506 0 0-3.016-1.165-6.528-1.697M24.277 9.51a5.2 5.2 0 0 1 1.851 3.518"/><path stroke="#002140" stroke-linecap="round" stroke-linejoin="round" d="M20.085 37.522s3.168 2.377 9.019 0m-7.311-4.815s3.289 1.463 7.435 0m-6.559-5.65c1.325.303 3.59.537 6.19-.383m-6.226-6.093c1.358.237 3.388.322 5.677-.485"/></svg>
